X: 30660
T: Oot Be Est Da Vong
R: reel
M: 4/4
K: Dmajor
|:~A3F ABde|~f3d edBd|~A3F ABde|1 fdef d2 dB:|2 fdef d2 df||
g3e ~f3d|edef edBA|~g3e f2 fd|edef ~a3f|
g3e ~f3d|edef edBd|~A3F ABde|faec dBAF|

